X:125
T:Warwickshire Will
M:C
L:1/8
B:Thompson's Compleat Collection of 200 Favourite Country Dances, vol. 3 (London, 1773)
Z:Transcribed and edited by Flynn Titford-Mock, 2007
Z:abc's:AK/Fiddler's Companion
K:Bb
g | fdBF G B2d | F A2 c BFD[B,B] | fdBF GBdg | fedc (B2B)::F | AFcA ecgf | edcB BAGF |
Egab fdcB | Aced "tr"d2c2 | bfdB gfed | edcB AGFE | GEBE FDce | dcBA (B2B) :|

